icons/svg/setting.svg

<svg class="icon" viewBox="0 0 1024 1024" xmlns="http://www.w3.org/2000/svg" width="200" height="200"><path d="M940.8 422.4c19.2-12.8 25.6-32 19.2-64 0 0-19.2-51.2-38.4-83.2s-51.2-76.8-57.6-76.8c-19.2-19.2-38.4-25.6-57.6-19.2H800c-57.6 32-134.4 12.8-166.4-44.8-6.4-12.8-12.8-44.8-12.8-44.8 0-25.6-19.2-44.8-44.8-44.8H441.6c-6.4 0-12.8 6.4-19.2 6.4-25.6 12.8-32 25.6-38.4 38.4-6.4 19.2-25.6 76.8-57.6 96-32 19.2-89.6 6.4-108.8 0-19.2 0-38.4 0-51.2 6.4l-19.2 19.2-70.4 121.6C64 352 70.4 384 89.6 396.8c0 0 19.2 19.2 32 38.4 32 57.6 12.8 134.4-44.8 166.4h-6.4c-12.8 12.8-19.2 38.4-6.4 64 0 0 19.2 51.2 38.4 83.2s51.2 76.8 57.6 76.8c19.2 19.2 38.4 25.6 57.6 19.2h6.4c57.6-32 134.4-12.8 166.4 44.8 12.8 19.2 12.8 44.8 12.8 44.8 0 25.6 25.6 44.8 51.2 51.2h134.4c6.4 0 12.8-6.4 19.2-6.4 12.8-6.4 25.6-25.6 32-38.4 6.4-19.2 25.6-83.2 57.6-96 32-19.2 96-6.4 115.2 0 12.8 6.4 32 0 51.2-6.4 6.4-6.4 12.8-6.4 19.2-12.8l70.4-115.2c12.8-25.6 6.4-51.2-19.2-70.4 0 0-19.2-19.2-32-38.4-38.4-70.4-19.2-147.2 38.4-179.2zM608 678.4c-89.6 51.2-211.2 19.2-262.4-70.4-51.2-89.6-19.2-211.2 70.4-262.4s211.2-19.2 262.4 70.4c51.2 89.6 19.2 211.2-70.4 262.4z"/></svg>

<svg t="1574163736096" class="icon" viewBox="0 0 1024 1024" version="1.1" xmlns="http://www.w3.org/2000/svg" p-id="1889" width="200" height="200"><path d="M940.8 422.4 940.8 422.4c19.2-12.8 25.6-32 19.2-64 0 0-19.2-51.2-38.4-83.2-19.2-32-51.2-76.8-57.6-76.8-19.2-19.2-38.4-25.6-57.6-19.2l-6.4 0c-57.6 32-134.4 12.8-166.4-44.8C627.2 121.6 620.8 89.6 620.8 89.6 620.8 64 601.6 44.8 576 44.8l0 0-134.4 0 0 0c-6.4 0-12.8 6.4-19.2 6.4C396.8 64 390.4 76.8 384 89.6 377.6 108.8 358.4 166.4 326.4 185.6 294.4 204.8 236.8 192 217.6 185.6 198.4 185.6 179.2 185.6 166.4 192 160 198.4 153.6 204.8 147.2 211.2l0 0L76.8 332.8l0 0C64 352 70.4 384 89.6 396.8c0 0 19.2 19.2 32 38.4 32 57.6 12.8 134.4-44.8 166.4l-6.4 0C57.6 614.4 51.2 640 64 665.6c0 0 19.2 51.2 38.4 83.2 19.2 32 51.2 76.8 57.6 76.8 19.2 19.2 38.4 25.6 57.6 19.2 0 0 0 0 0 0l6.4 0c57.6-32 134.4-12.8 166.4 44.8 12.8 19.2 12.8 44.8 12.8 44.8 0 25.6 25.6 44.8 51.2 51.2l0 0 134.4 0 0 0c6.4 0 12.8-6.4 19.2-6.4 12.8-6.4 25.6-25.6 32-38.4 6.4-19.2 25.6-83.2 57.6-96 32-19.2 96-6.4 115.2 0 12.8 6.4 32 0 51.2-6.4 6.4-6.4 12.8-6.4 19.2-12.8l0 0 70.4-115.2 0 0c12.8-25.6 6.4-51.2-19.2-70.4 0 0-19.2-19.2-32-38.4C864 531.2 883.2 454.4 940.8 422.4zM608 678.4c-89.6 51.2-211.2 19.2-262.4-70.4C294.4 518.4 326.4 396.8 416 345.6s211.2-19.2 262.4 70.4C729.6 505.6 697.6 627.2 608 678.4z" p-id="1890"></path></svg>
